X: 123202
T: WHITE COCKADE
P: Same Figure.
%R: reel
B: James Kerr "Merry Melodies" v.1 p.23 s.2 #2
Z: 2017 John Chambers <jc:trillian.mit.edu>
M: C
L: 1/8
K: G	% with endings in Bm
(GA) |\
B2B2 B2(AG) | B2B2 B2g2 |\
d2B2 B2(AG) | B2A2 A2(GA) |\
B2B2 cBAG | B2d2 g3a |\
bagf agfe | d2B2B2 :|
|: (uBc) |\
d2B2 g2B2 | d2d2 d3ue |\
d2B2 g2(fg) | a2A2 A2(GA) |\
B2B2 cBAG | B2d2 g3a |\
bagf agfe | d2B2B2 :|

%%sep 1 1 500
%%sep 1 1 500

